X: 3
T: Beautiful who hold my life
M: C |
A: Pavane
K: F
V: 1
"^ Drum beats" F2 FF | F2 FF | F2 FF | F2 FF | F2 FF | F2 FF | F2
FF |
V: 2
"^ Superius" G4 | G2 ^ F2 | G2 A2 | B4 | B2 d2 | c2 B2 | B2 A2 |
w: Bel-le who hold my vi-e cap-ti-ve in your
V: 3
"^ Contra tenor." d4 | d2 d2 | d2 f2 | f4 | f2 f2 | e2 f2 | g2 f2 |
w: Bel-le who hold my vi-e cap-ti-ve in your
V: 4
"^ Tenor" B4 | B2 A2 | B2 c2 | d4 | d2 B2 | G2 d2 | c2 c2 |
w: Bel-le who hold my vi-e cap-ti-ve in your
V: 5
"^ Bassus." g4 | g2 d2 | g2 f2 | B4 | B2 B2 | c2 d2 | _e2 f2 |
w: Bel-le who hold my vi-e cap-ti-ve in your
%
V: 1
"^ Drum beat." F2 FF | F2 FF | F2 FF | F2 FF | F2 FF | F2 FF | F2
FF |
V: 2
"^ Superius." B4 | G4 | G2 ^ F2 | G2 A2 | B4 | B2 d2 | c2 B2 |
w: yeulx, qui me la la ra-vi-e de soubz-riz
V: 3
"^ Contra tenor." f4 | d4 | d2 d2 | d2 f2 | f4 | f2 f2 | e2 f2 |
w: yeulx, qui me la la ra-vi-e de soubz-riz
V: 4
"^ Tenor" d4 | B4 | B2 A2 | B2 c2 | d4 | d2 B2 | G2 d2 |
w: yeulx, qui me la la ra-vi-e de soubz-riz
V: 5
"^ Bassus." B4 | g4 | g2 d2 | g2 f2 | B4 | B2 B2 | c2 d2 |
w: yeulx, qui me la la ra-vi-e de soubz-riz
%
V: 1
"^ Drum beat" F2 FF | F2 FF | F2 FF | F2 FF | F2 FF | F2 FF | F2 FF |
V: 2
"^ Superius." B2 A2 | B4 | B4 | A2 A2 | G2 G2 | F4 | D4 |
w: gra-ci-les, Come tost me se-rir or
V: 3
"^ Contra tenor." g2 f2 | f4 | f4 | f2 f2 | d2 _e2 | d4 | f4 |
w: gra-ci-les, Come tost me se-rir or
V: 4
"^ Tenor." c2 c2 | d4 | d4 | c2 d2 | B2 c2 | A4 | B4 |
w: gra-ci-les, Come tost me se-rir or
V: 5
"^ Bassus." d2 f2 | B4 | b4 | f2 d2 | g2 c2 | d4 | B4 |
w: gra-ci-les, Come tost me se-rir or
%
V: 1
"^ Drum beat." F2 FF | F2 FF | F2 FF | F2 FF | F2 FF | F2 FF | F2
FF |
V: 2
"^ Superius." EF G2 | G2 ^ F2 | G4 | B4 | A2 A2 | G2 G2 | ^ F4 |
w: me * faul-dra mou-rir. Come tosto me
V: 3
"^ Contra tenor." c2 d2 | d2 d2 | = B4 | B4 | f2 f2 | d2 _e2 | d4 |
w: me faul-dra mou-rir. Come tosto me
V: 4
"^ Tenor." G2 B2 | A2 A2 | G4 | d4 | c2 d2 | B2 c2 | A4 |
w: me faul-dra mou-rir. Come tosto me
V: 5
"^ Bassus." c2 G2 | d2 d2 | G4 | g4 | f2 d2 | g2 c2 | d4 |
w: me faul-dra mou-rir. Come tosto me
%
V: 1
"^ Drum beat" F2 FF | F2 FF | F2 FF | F2 FF ||
V: 2
"^ Superius." D4 | EF G2 | G2 ^ F2 | G4 ||
w: or me * faul-dra mou-rir.
V: 3
"^ Contra tenor." f4 | e2 d2 | d2 d2 | d4 ||
w: or me faul-dra mouir.
V: 4
"^ Tenor." B4 | G2 B2 | A2 A2 | G4 ||
w: or me faul-dra mouir.
V: 5
"^ Bassus." B4 | c2 G2 | d2 d2 | G4 ||
w: or me faul-dra mouir.

